tools/panel_16/weather-storm.svg

<svg xmlns="http://www.w3.org/2000/svg" width="16" height="16" version="1.1">
 <defs>
  <style id="current-color-scheme" type="text/css">
   .ColorScheme-Text { color:#d3dae3; } .ColorScheme-Highlight { color:#5294e2; }
  </style>
 </defs>
 <path style="fill:currentColor" class="ColorScheme-Text" d="M 8,0 C 5.93,0 4.17,1.27 3.41,3.07 1.48,3.35 0,5 0,7 0,9.21 1.79,11 4,11 L 6,11 6,8.5 C 6,7.67 6.67,7 7.5,7 8.33,7 9,7.67 9,8.5 l 0,2.5 3.5,0 C 14.43,11 16,9.44 16,7.5 16,5.71 14.65,4.23 12.91,4.03 12.45,1.74 10.43,0 8,0 Z"/>
 <path style="fill:currentColor" class="ColorScheme-Highlight" d="m 7.34,8.029287 c -0.2,0.07 -0.35,0.28 -0.34,0.5 l 0,3.78 -0.03,0.09 -0.63,0.63 -0.03,0 -1.81,0 -0.22,0 -0.12,0.16 -1,1 c -0.26,0.15 -0.31,0.56 -0.1,0.78 0.22,0.21 0.63,0.16 0.78,-0.1 l 0.85,-0.84 1.31,0 0,1.4 c 0,0.26 0.24,0.51 0.5,0.51 0.26,0 0.5,-0.25 0.5,-0.51 l 0,-1.71 0.69,-0.69 2.12,0 0.75,0.75 -1.4,1.31 c -0.26,0.15 -0.31,0.56 -0.1,0.78 0.22,0.21 0.63,0.16 0.78,-0.1 l 1.41,-1.3 1.41,1.3 c 0.15,0.26 0.56,0.31 0.78,0.1 0.21,-0.22 0.16,-0.63 -0.1,-0.78 l -3,-2.9 -0.12,-0.16 -0.22,0 -2,0 0,-3.5 c 0,-0.3 -0.3,-0.56 -0.59,-0.5 z"/>
</svg>

<svg xmlns="http://www.w3.org/2000/svg" width="16" height="16" version="1.1">
 <defs>
  <style id="current-color-scheme" type="text/css">
   .ColorScheme-Text { color:#d3dae3; } .ColorScheme-Highlight { color:#5294e2; }
  </style>
 </defs>
 <g>
  <path style="fill:currentColor" class="ColorScheme-Text" d="M 8,0 C 5.93,0 4.17,1.27 3.41,3.07 1.48,3.35 0,5 0,7 0,9.21 1.79,11 4,11 H 6 V 8.5 C 6,7.67 6.67,7 7.5,7 8.33,7 9,7.67 9,8.5 V 11 H 12.5 C 14.43,11 16,9.44 16,7.5 16,5.71 14.65,4.23 12.91,4.03 12.45,1.74 10.43,0 8,0 Z"/>
  <path style="fill:currentColor" class="ColorScheme-Highlight" d="M 7.34,8 C 7.14,8.07 6.99,8.28 7,8.5 V 12.28 C 6.99,12.31 6.98,12.34 6.97,12.37 L 6.34,13 H 6.31 4.5 4.28 L 4.16,13.16 3.16,14.16 C 2.9,14.31 2.85,14.72 3.06,14.94 3.28,15.15 3.69,15.1 3.84,14.84 L 4.69,14 H 6 V 15.5 C 6,15.76 6.24,16.01 6.5,16.01 6.76,16.01 7,15.76 7,15.5 V 13.69 L 7.69,13 H 9.81 L 10.56,13.75 9.16,15.16 C 8.9,15.31 8.85,15.72 9.06,15.94 9.28,16.15 9.69,16.1 9.84,15.84 L 11.25,14.44 12.66,15.84 C 12.81,16.1 13.22,16.15 13.44,15.94 13.65,15.72 13.6,15.31 13.34,15.16 L 10.34,12.16 10.22,12 H 10 8 V 8.5 C 8,8.2 7.7,7.94 7.41,8 7.39,8 7.36,8 7.34,8 Z"/>
 </g>
</svg>
